icons/device-desktop.svg

<svg xmlns="http://www.w3.org/2000/svg" fill="#90a4ae" viewBox="0 0 24 24"><path d="M21 14H3V4h18m0-2H3c-1.11 0-2 .89-2 2v12a2 2 0 0 0 2 2h7l-2 3v1h8v-1l-2-3h7a2 2 0 0 0 2-2V4a2 2 0 0 0-2-2"/></svg>

<!--
  - The MIT License (MIT)
  -
  - Copyright (c) 2015-2024 Elior "Mallowigi" Boukhobza
  -
  - Permission is hereby granted, free of charge, to any person obtaining a copy
  - of this software and associated documentation files (the "Software"), to deal
  - in the Software without restriction, including without limitation the rights
  - to use, copy, modify, merge, publish, distribute, sublicense, and/or sell
  - copies of the Software, and to permit persons to whom the Software is
  - furnished to do so, subject to the following conditions:
  -
  - The above copyright notice and this permission notice shall be included in all
  - copies or substantial portions of the Software.
  -
  - THE SOFTWARE IS PROVIDED "AS IS", WITHOUT WARRANTY OF ANY KIND, EXPRESS OR
  - IMPLIED, INCLUDING BUT NOT LIMITED TO THE WARRANTIES OF MERCHANTABILITY,
  - FITNESS FOR A PARTICULAR PURPOSE AND NONINFRINGEMENT. IN NO EVENT SHALL THE
  - AUTHORS OR COPYRIGHT HOLDERS BE LIABLE FOR ANY CLAIM, DAMAGES OR OTHER
  - LIABILITY, WHETHER IN AN ACTION OF CONTRACT, TORT OR OTHERWISE, ARISING FROM,
  - OUT OF OR IN CONNECTION WITH THE SOFTWARE OR THE USE OR OTHER DEALINGS IN THE
  - SOFTWARE.
  -
  -->


<svg  xmlns="http://www.w3.org/2000/svg" version="1.1" width="16px" height="16px" fill="#90A4AE"
     viewBox="0 0 24 24">
  <path
      d="M21,14H3V4H21M21,2H3C1.89,2 1,2.89 1,4V16A2,2 0 0,0 3,18H10L8,21V22H16V21L14,18H21A2,2 0 0,0 23,16V4C23,2.89 22.1,2 21,2Z"/>
</svg>
